Obsidian/status/22s/simplescreenrecorder-error.svg

<svg height="22" width="22" xmlns="http://www.w3.org/2000/svg"><path d="m3.1816406 5c-.6547 0-1.1816406.5344188-1.1816406 1.1992188v9.6015622c0 .665.5269406 1.199219 1.1816406 1.199219h11.6367184c.655 0 1.181641-.534219 1.181641-1.199219v-2.800781l5 2v-8l-5 2v-2.8007812c0-.6648001-.526641-1.1992188-1.181641-1.1992188zm3.5957032 2 2.2226562 2.2226562 2.222656-2.2226562 1.777344 1.7773438-2.222656 2.2226562 2.222656 2.222656-1.777344 1.777344-2.222656-2.222656-2.2226562 2.222656-1.7773438-1.777344 2.2226562-2.222656-2.2226562-2.2226562z" fill="#5294e2"/></svg>

<svg xmlns="http://www.w3.org/2000/svg" width="22" height="22" version="1">
 <defs>
  <style id="current-color-scheme" type="text/css">
   .ColorScheme-Text { color:#d3dae3; } .ColorScheme-Highlight { color:#5294e2; }
  </style>
 </defs>
 <path style="fill:currentColor" class="ColorScheme-Highlight" d="M 3.1816406 5 C 2.5269406 5 2 5.5344188 2 6.1992188 L 2 15.800781 C 2 16.465781 2.5269406 17 3.1816406 17 L 14.818359 17 C 15.473359 17 16 16.465781 16 15.800781 L 16 13 L 21 15 L 21 7 L 16 9 L 16 6.1992188 C 16 5.5344187 15.473359 5 14.818359 5 L 3.1816406 5 z M 6.7773438 7 L 9 9.2226562 L 11.222656 7 L 13 8.7773438 L 10.777344 11 L 13 13.222656 L 11.222656 15 L 9 12.777344 L 6.7773438 15 L 5 13.222656 L 7.2226562 11 L 5 8.7773438 L 6.7773438 7 z"/>
</svg>
